X: 1
T: J\"amtl\"andsk brudmarsch
R: g\aangl\aat, march
S: Fiddle Hell Online 2022-4-2 handout for Swedish Jam led by Bronwyn Bird and Justin Nawn
M: 4/4
L: 1/8
K: Gm
"^A"[|]\
D | "Gm"DG GG G>A BA/G/ | "D7"^FA AA A>B cB/A/ | "Gm"B2 BB BA/B/ dB | "Cm"BA A/B/A/G/ "D7"^F3 ||
D | "Gm"DG GG G>A BA/G/ | "D7"^FA AA A>B cB/A/ | "Gm"Bd BA/G/ "D7"Ac AG/^F/ | "Gm"G2 "D7"^F/G/A/B/ "Gm"G2 z |]
"^B"[|\
D | "Bb"d2 dd dc/d/ ed | "F"d>c cc c3 A | "Gm"B2 BB BA/B/ dB | "D7"B>A AG ^F2 z ||
D | "Bb"d2 dd dc/d/ ed | "F"d3c cc c3 A | "Gm"Bd BA/G/ "D7"Ac AG/^F/ | "Gm"G2 "D7"^F/G/A/B/ "Gm"G3 |]
